X:1
T: The Queen of Hearts
N:
C:
S: Play  4  times
A:
O:
R:
M:6/4
K:A
I:speed 150
%W: A1
% voice 1 (1 lines, 33 notes)
K:A
M:6/4
L:1/16
A8 A4 A8 a4 |g8 f4 e8 a4 |g8 f4 e4 f4 g4 |f4 a4 c4 B8 c4 |B8 A4 G8 A4 |B12 B4 d4 c4 |B8 A4 G8 A4 |B12B8 c4 |
%W:
% voice 1 (1 lines, 39 notes)
d8 d4 d4 e4 f4 |d4 f4 e4 c8 B4 |c8 c4 c4 d4 e4 |f4 e4 d2 c2 B4 c4 d4 |e4 z8 G4 z8 |F8 G4 A4 d4 c4 |B4 A4 G4 F8 E4 |E12E8 E4 |
%W: A2
% voice 1 (1 lines, 33 notes)
A8 A4 A8 a4 |g8 f4 e8 a4 |g8 f4 e4 f4 g4 |f4 a4 c4 B8 c4 |B8 A4 G8 A4 |B12 B4 d4 c4 |B8 A4 G8 A4 |B12B8 c4 |
%W:
% voice 1 (1 lines, 39 notes)
d8 d4 d4 e4 f4 |d4 f4 e4 c8 B4 |c8 c4 c4 d4 e4 |f4 e4 d2 c2 B4 c4 d4 |e4 z8 G4 z8 |F8 G4 A4 d4 c4 |B4 A4 G4 F8 E4 |E12E8 E4 |
%W: B1
% voice 1 (1 lines, 45 notes)
B8 B4 B4 c4 A4 |G12G8 B4 |e8 e4 e6 f2 e2 d2 |c12c8 c4 |f8 g4 a4 g4 f4 |^e8 c4 f8 g4 |a4 g4 f4 c4 f4 ^e4 |f12f8 g4 |a8 a4 a6 b2 a2 g2 |f8 f4 f8 e4 |
%W:
% voice 1 (1 lines, 43 notes)
d4 f4 d4 c4 e4 c4 |B12B8 c4 |B8 A4 G8 A4 |B12B8 c2 d2 |B8 A4 G8 A4 |B12B8 c4 |d4 f4 d4 c4 e4 c4 |B4 a4 g4 f4 b4 f4 |e4 d4 c4 B8 A4 |A12A12 |
%W: B2
% voice 1 (1 lines, 45 notes)
B8 B4 B4 c4 A4 |G12G8 B4 |e8 e4 e6 f2 e2 d2 |c12c8 c4 |f8 g4 a4 g4 f4 |^e8 c4 f8 g4 |a4 g4 f4 c4 f4 ^e4 |f12f8 g4 |a8 a4 a6 b2 a2 g2 |f8 f4 f8 e4 |
%W:
% voice 1 (1 lines, 43 notes)
d4 f4 d4 c4 e4 c4 |B12B8 c4 |B8 A4 G8 A4 |B12B8 c2 d2 |B8 A4 G8 A4 |B12B8 c4 |d4 f4 d4 c4 e4 c4 |B4 a4 g4 f4 b4 f4 |e4 d4 c4 B8 A4 |A12A12 ||
